src/icons/git.svg

<?xml version="1.0" encoding="UTF-8"?>
<svg xmlns="http://www.w3.org/2000/svg" xmlns:xlink="http://www.w3.org/1999/xlink" width="32" height="32" viewBox="0 0 32 32" version="1.1">
<g id="surface1">
<path style=" stroke:none;fill-rule:nonzero;fill:rgb(6.27451%,5.882353%,5.098039%);fill-opacity:1;" d="M 32.652344 13.878906 L 18.121094 -0.652344 C 17.285156 -1.488281 15.929688 -1.488281 15.089844 -0.652344 L 12.074219 2.367188 L 15.902344 6.195312 C 16.789062 5.894531 17.808594 6.09375 18.519531 6.804688 C 19.230469 7.515625 19.433594 8.546875 19.125 9.4375 L 22.8125 13.128906 C 23.707031 12.820312 24.734375 13.019531 25.449219 13.734375 C 26.445312 14.726562 26.445312 16.34375 25.449219 17.339844 C 24.449219 18.335938 22.835938 18.335938 21.839844 17.339844 C 21.089844 16.589844 20.90625 15.488281 21.285156 14.566406 L 17.84375 11.125 L 17.84375 20.179688 C 18.085938 20.296875 18.316406 20.457031 18.519531 20.660156 C 19.515625 21.65625 19.515625 23.269531 18.519531 24.265625 C 17.523438 25.261719 15.90625 25.261719 14.914062 24.265625 C 13.917969 23.269531 13.917969 21.65625 14.914062 20.660156 C 15.160156 20.414062 15.445312 20.226562 15.75 20.105469 L 15.75 10.96875 C 15.433594 10.839844 15.152344 10.648438 14.914062 10.410156 C 14.160156 9.65625 13.976562 8.550781 14.363281 7.621094 L 10.589844 3.847656 L 0.628906 13.8125 C -0.210938 14.648438 -0.210938 16.007812 0.628906 16.84375 L 15.160156 31.371094 C 15.996094 32.210938 17.351562 32.210938 18.191406 31.371094 L 32.652344 16.910156 C 33.488281 16.074219 33.488281 14.714844 32.652344 13.878906 "/>
</g>
</svg>

<svg role="img" viewBox="0 0 32 32" xmlns="http://www.w3.org/2000/svg"><path d="M32.652 13.879 18.122-.652a2.145 2.145 0 0 0-3.032 0l-3.016 3.02 3.828 3.827a2.546 2.546 0 0 1 3.223 3.242l3.688 3.692a2.549 2.549 0 0 1 2.637 4.21 2.551 2.551 0 0 1-4.164-2.773l-3.442-3.441v9.055c.242.117.472.277.676.48a2.549 2.549 0 1 1-2.77-.555V10.97a2.552 2.552 0 0 1-1.387-3.348L10.59 3.848.629 13.813a2.138 2.138 0 0 0 0 3.03L15.16 31.372c.836.84 2.192.84 3.031 0l14.461-14.46a2.145 2.145 0 0 0 0-3.032" style="stroke:none;fill-rule:nonzero;fill:rgb(6.27451%,5.882353%,5.098039%);fill-opacity:1"/></svg>
